packages/core/assets/Icons/explore_travel.svg

<svg viewBox="0 0 20 20" fill="none" xmlns="http://www.w3.org/2000/svg">
<path d="M1.6665 10C1.6665 8.84724 1.88525 7.76391 2.32275 6.75002C2.76025 5.73613 3.354 4.85419 4.104 4.10419C4.854 3.35419 5.73595 2.76044 6.74984 2.32294C7.76373 1.88544 8.84706 1.66669 9.99984 1.66669C11.7637 1.66669 13.3366 2.1528 14.7186 3.12502C16.1005 4.09724 17.104 5.35419 17.729 6.89585C17.8262 7.13197 17.8297 7.36808 17.7394 7.60419C17.6491 7.8403 17.486 8.00002 17.2498 8.08335C17.0276 8.1528 16.8158 8.13197 16.6144 8.02085C16.413 7.90974 16.2707 7.74308 16.1873 7.52085C15.854 6.68752 15.3748 5.95141 14.7498 5.31252C14.1248 4.67363 13.3748 4.18058 12.4998 3.83335V4.16669C12.4998 4.62502 12.3366 5.01738 12.0103 5.34377C11.6839 5.67016 11.2915 5.83335 10.8332 5.83335H9.1665V7.50002C9.1665 7.73613 9.08664 7.93405 8.92692 8.09377C8.7672 8.25349 8.56928 8.33335 8.33317 8.33335H6.6665V10H7.49984C7.73595 10 7.93387 10.0799 8.09359 10.2396C8.25331 10.3993 8.33317 10.5972 8.33317 10.8334V12.5H7.49984L3.49984 8.50002C3.45817 8.75002 3.41998 9.00002 3.38525 9.25002C3.35053 9.50002 3.33317 9.75002 3.33317 10C3.33317 11.6945 3.8922 13.1736 5.01025 14.4375C6.12831 15.7014 7.53456 16.4306 9.229 16.625C9.45123 16.6528 9.63525 16.7465 9.78109 16.9063C9.92692 17.066 9.99984 17.2639 9.99984 17.5C9.99984 17.7361 9.91998 17.934 9.76025 18.0938C9.60053 18.2535 9.40956 18.3195 9.18734 18.2917C7.06234 18.0834 5.27762 17.1945 3.83317 15.625C2.38873 14.0556 1.6665 12.1806 1.6665 10ZM16.9998 17.3334L14.9165 15.25C14.6248 15.4167 14.3123 15.5556 13.979 15.6667C13.6457 15.7778 13.2915 15.8334 12.9165 15.8334C11.8748 15.8334 10.9894 15.4688 10.2603 14.7396C9.53109 14.0104 9.1665 13.125 9.1665 12.0834C9.1665 11.0417 9.53109 10.1563 10.2603 9.4271C10.9894 8.69794 11.8748 8.33335 12.9165 8.33335C13.9582 8.33335 14.8436 8.69794 15.5728 9.4271C16.3019 10.1563 16.6665 11.0417 16.6665 12.0834C16.6665 12.4584 16.611 12.8125 16.4998 13.1459C16.3887 13.4792 16.2498 13.7917 16.0832 14.0834L18.1665 16.1667C18.3193 16.3195 18.3957 16.5139 18.3957 16.75C18.3957 16.9861 18.3193 17.1806 18.1665 17.3334C18.0137 17.4861 17.8193 17.5625 17.5832 17.5625C17.3471 17.5625 17.1526 17.4861 16.9998 17.3334ZM12.9165 14.1667C13.4998 14.1667 13.9929 13.9653 14.3957 13.5625C14.7984 13.1597 14.9998 12.6667 14.9998 12.0834C14.9998 11.5 14.7984 11.007 14.3957 10.6042C13.9929 10.2014 13.4998 10 12.9165 10C12.3332 10 11.8401 10.2014 11.4373 10.6042C11.0346 11.007 10.8332 11.5 10.8332 12.0834C10.8332 12.6667 11.0346 13.1597 11.4373 13.5625C11.8401 13.9653 12.3332 14.1667 12.9165 14.1667Z" fill="currentColor"/>
</svg>

<svg xmlns="http://www.w3.org/2000/svg" width="20" height="20" fill="none" viewBox="0 0 20 20">
  <path fill="#201F1F" d="M1.667 10c0-1.153.218-2.236.656-3.25a8.415 8.415 0 0 1 1.781-2.646A8.415 8.415 0 0 1 6.75 2.323 8.115 8.115 0 0 1 10 1.667c1.764 0 3.337.486 4.719 1.458a8.378 8.378 0 0 1 3.01 3.77c.097.237.1.473.01.71a.78.78 0 0 1-1.125.416.92.92 0 0 1-.427-.5 6.668 6.668 0 0 0-1.437-2.208 6.413 6.413 0 0 0-2.25-1.48v.334c0 .458-.163.85-.49 1.177-.326.326-.719.49-1.177.49H9.166V7.5c0 .236-.08.434-.24.594a.806.806 0 0 1-.593.24H6.666V10H7.5c.236 0 .434.08.594.24.16.16.24.357.24.593V12.5H7.5l-4-4c-.042.25-.08.5-.115.75-.034.25-.052.5-.052.75 0 1.694.56 3.174 1.677 4.438 1.118 1.262 2.525 1.992 4.22 2.187a.869.869 0 0 1 .552.281c.146.16.219.358.219.594s-.08.434-.24.594a.657.657 0 0 1-.573.198c-2.125-.209-3.91-1.098-5.354-2.667C2.39 14.055 1.666 12.181 1.666 10ZM17 17.333l-2.084-2.083a5.194 5.194 0 0 1-.937.417 3.338 3.338 0 0 1-1.063.166c-1.041 0-1.927-.364-2.656-1.093-.729-.73-1.094-1.615-1.094-2.657 0-1.041.365-1.927 1.094-2.656.73-.73 1.615-1.094 2.656-1.094 1.042 0 1.928.365 2.657 1.094.729.73 1.093 1.615 1.093 2.656 0 .375-.055.73-.166 1.063a5.2 5.2 0 0 1-.417.937l2.084 2.084a.79.79 0 0 1 .229.583.79.79 0 0 1-.23.583.79.79 0 0 1-.583.23.79.79 0 0 1-.583-.23Zm-4.084-3.166c.584 0 1.077-.202 1.48-.604.402-.403.604-.896.604-1.48 0-.583-.202-1.076-.604-1.479a2.012 2.012 0 0 0-1.48-.604c-.583 0-1.076.201-1.479.604a2.012 2.012 0 0 0-.604 1.48c0 .583.202 1.076.604 1.479.403.402.896.604 1.48.604Z"/>
</svg>
